packages/katcn/src/icons/svg/arrow13-solid.svg

<svg width="24" height="25" viewBox="0 0 24 25" fill="none" xmlns="http://www.w3.org/2000/svg">
<path d="M15.1 10.696H20.4C21.7 10.696 22.3 9.09598 21.4 8.19598L19.4 6.19598L21.7 3.89598C22.1 3.49598 22.1 2.89598 21.7 2.49598C21.3 2.09598 20.7 2.09598 20.3 2.49598L18 4.79598L16 2.79598C15.1 1.89598 13.5 2.49598 13.5 3.79598V9.09598C13.6 9.99598 14.3 10.696 15.1 10.696Z" fill="black"/>
<path d="M7.9 2.89599L5.9 4.89599L3.7 2.59599C3.3 2.19599 2.7 2.19599 2.3 2.59599C1.9 2.99599 1.9 3.59599 2.3 3.99599L4.6 6.29599L2.6 8.29599C1.7 9.19599 2.3 10.796 3.6 10.796H8.9C9.7 10.796 10.3 10.196 10.3 9.39599V3.89599C10.4 2.59599 8.8 1.99599 7.9 2.89599Z" fill="black"/>
<path d="M8.9 13.896H3.6C2.3 13.896 1.7 15.496 2.6 16.396L4.6 18.396L2.3 20.696C1.9 21.096 1.9 21.696 2.3 22.096C2.5 22.196 2.7 22.296 3 22.296C3.3 22.296 3.5 22.196 3.7 21.996L6 19.696L8 21.696C8.9 22.596 10.5 21.996 10.5 20.696V15.396C10.4 14.596 9.7 13.896 8.9 13.896Z" fill="black"/>
<path d="M19.5 18.396L21.5 16.396C22.4 15.496 21.8 13.896 20.5 13.896H15.2C14.4 13.896 13.8 14.496 13.8 15.296V20.596C13.8 21.896 15.4 22.496 16.3 21.596L18.3 19.596L20.6 21.896C20.8 22.096 21 22.196 21.3 22.196C21.6 22.196 21.8 22.096 22 21.896C22.4 21.496 22.4 20.896 22 20.496L19.5 18.396Z" fill="black"/>
</svg>

<svg xmlns="http://www.w3.org/2000/svg" fill="none" viewBox="0 0 24 25"><path fill="#000" d="M15.1 10.696h5.3c1.3 0 1.9-1.6 1-2.5l-2-2 2.3-2.3c.4-.4.4-1 0-1.4s-1-.4-1.4 0l-2.3 2.3-2-2c-.9-.9-2.5-.3-2.5 1v5.3c.1.9.8 1.6 1.6 1.6m-7.2-7.8-2 2-2.2-2.3c-.4-.4-1-.4-1.4 0s-.4 1 0 1.4l2.3 2.3-2 2c-.9.9-.3 2.5 1 2.5h5.3c.8 0 1.4-.6 1.4-1.4v-5.5c.1-1.3-1.5-1.9-2.4-1m1 11H3.6c-1.3 0-1.9 1.6-1 2.5l2 2-2.3 2.3c-.4.4-.4 1 0 1.4.2.1.4.2.7.2s.5-.1.7-.3l2.3-2.3 2 2c.9.9 2.5.3 2.5-1v-5.3c-.1-.8-.8-1.5-1.6-1.5m10.6 4.5 2-2c.9-.9.3-2.5-1-2.5h-5.3c-.8 0-1.4.6-1.4 1.4v5.3c0 1.3 1.6 1.9 2.5 1l2-2 2.3 2.3c.2.2.4.3.7.3s.5-.1.7-.3c.4-.4.4-1 0-1.4z"/></svg>
